X:3
T:I Won't Last A Day Without You
C:Roger Nicohols
L:1/4
M:C
I:linebreak $
K:D treble
"D" d4 |"F#m" c2 d2 |"G" B4- |"A" B4 :|S"D" z A A B |"F#m" A2 A A |"G" A G G F |"A7" F E2 D/E/ |
"Bm" F c c2- | c2 z F |"Em" G d d2- |"A7" d4 ||$"D" z A A B |"F#m" A2 A A |"G" A G G F |
"A" F E2 D/E/ |"Bm" F c c2- | c2 z F |"Em" G d d2- |"A7" d2 d e ||$"D" f2 f f |"D7" f e2 f |
"G" d B d2 |"C7" z2 d e |"D" f2 f f |"D7" f e2 f |"G" d4 |"C7" z2 f g |$"D" a2 a a |"D7" a g2 a |
"G" f2 d B |"Gm6" d2 A d |"Em" g2 f d |"A7" A2 G A"^To Coda" :|"D" A4- | A4 ||$[K:A]"Bm" c2 A2 |
"E7" F G A e |"A" B c3- |"F#m" c4 |"Bm" c d c B |"E7" c d e f ||[K:F#]"F#" c4- | c3 F |
"G#m" f2 d2 |$"C#7" c d d F |"F#" G A3- | A4 |"D#m" f f f g |"E" B2 G B |"F#7" c4- | c2 B c ||
[K:D]"G" d2"A" c "_D.S. al Coda" B ||$Ox/"A" A4- | A4 ||"D" A2 d2 |"F#m" c2 d2 |"G" B4- |"A" B4 |
"D" d4 |"F#m" c2 d2 |"G" B2 A2 |"A" D2 E2 |"D" D4- | D4 |]

